facebook.svg

<svg height="20" viewBox="0 0 10.37 20" width="10.37" xmlns="http://www.w3.org/2000/svg"><path d="m10.37.14v3.17h-1.88a1.71 1.71 0 0 0 -1.38.43 1.93 1.93 0 0 0 -.36 1.26v2.31h3.51l-.48 3.55h-3v9.14h-3.72v-9.12h-3.06v-3.56h3.06v-2.61a4.71 4.71 0 0 1 1.25-3.48 4.5 4.5 0 0 1 3.32-1.23 20.93 20.93 0 0 1 2.74.14z"/></svg>

<svg xmlns="http://www.w3.org/2000/svg" width="10.37" height="20" viewBox="0 0 10.37 20"><title>facebook</title><path d="M10.37.14V3.31H8.49a1.71,1.71,0,0,0-1.38.43A1.93,1.93,0,0,0,6.75,5V7.31h3.51l-.48,3.55h-3V20H3.06V10.88H0V7.32H3.06V4.71A4.71,4.71,0,0,1,4.31,1.23,4.5,4.5,0,0,1,7.63,0a20.93,20.93,0,0,1,2.74.14Z"/></svg>
